X: 17495
T: Hills Of Dungannon, The
R: jig
M: 6/8
K: Dmajor
|:A/G/|FEF D3|dB/c/d fed|e3 gfe|dB/c/d ecA|
F3 D3|Eed cBA|e/f/ge afd|BAc d:|
|:agf fed|dfa agf|g3 f3|efd cBA|
agf fed|dfa agf|e/f/ge afd|BAc d3:|

